Papirus/24x24/apps/appimagekit-unityhub.svg

<svg width="24" height="24" version="1.1" xmlns="http://www.w3.org/2000/svg">
 <rect transform="matrix(0,-1,-1,0,0,0)" x="-22" y="-22" width="20" height="20" rx="1" ry="1" style="fill:#e4e4e4"/>
 <path d="m17.105469 4.933188-6.146485 1.646484-0.820312 1.419922h-1.638672l-4.5 4.5 4.5 4.5h1.638672l0.820312 1.419922 6.146485 1.646484 1.648437-6.146484-0.820312-1.419922 0.820312-1.419922zm-2.615235 2.53125-2.330078 4.035156h-4.660156l2.953125-2.953125zm1.732422 1 1.082032 4.035156-1.082032 4.035156-2.330078-4.035156zm-8.722656 5.035156h4.660156l2.330078 4.035156-4.037109-1.082031z" style="opacity:.2"/>
 <path d="m3 2c-0.554 0-1 0.446-1 1v0.5c0-0.554 0.446-1 1-1h18c0.554 0 1 0.446 1 1v-0.5c0-0.554-0.446-1-1-1z" style="fill:#ffffff;opacity:.3"/>
 <path d="m3 22.5c-0.554 0-1-0.446-1-1v-0.5c0 0.554 0.446 1 1 1h18c0.554 0 1-0.446 1-1v0.5c0 0.554-0.446 1-1 1z" style="opacity:.2"/>
 <path d="M 17.105469,4.4335938 10.958984,6.0800781 10.138672,7.5 H 8.5 L 4,12 8.5,16.5 h 1.638672 l 0.820312,1.419922 6.146485,1.646484 1.648437,-6.146484 L 17.933594,12 18.753906,10.580078 Z M 14.490234,6.9648438 12.160156,11 H 7.5 l 2.953125,-2.953125 z m 1.732422,1 L 17.304688,12 16.222656,16.035156 13.892578,12 Z M 7.5,13 h 4.660156 l 2.330078,4.035156 -4.037109,-1.082031 z" style="fill:#303030"/>
</svg>

<svg xmlns="http://www.w3.org/2000/svg" width="24" height="24" version="1.1">
 <rect style="opacity:0.2" width="20" height="20" x="2" y="2.5" rx="1" ry="1"/>
 <rect style="fill:#e4e4e4" width="20" height="20" x="2" y="2" rx="1" ry="1"/>
 <path style="opacity:0.2" d="M 17.105,4.9332 10.959,6.5797 10.139,7.9996 H 8.5 L 4,12.5 8.5,17 H 10.139 L 10.959,18.42 17.105,20.066 18.754,13.92 17.934,12.5 18.754,11.08 Z M 14.49,7.4644 12.16,11.5 H 7.5 L 10.453,8.5465 Z M 16.223,8.4644 17.305,12.5 16.223,16.535 13.893,12.5 Z M 7.5,13.5 H 12.16 L 14.49,17.535 10.453,16.453 Z"/>
 <path style="fill:#303030" d="M 17.105469,4.4335938 10.958984,6.0800781 10.138672,7.5 H 8.5 L 4,12 8.5,16.5 h 1.638672 l 0.820312,1.419922 6.146485,1.646484 1.648437,-6.146484 L 17.933594,12 18.753906,10.580078 Z M 14.490234,6.9648438 12.160156,11 H 7.5 l 2.953125,-2.953125 z m 1.732422,1 L 17.304688,12 16.222656,16.035156 13.892578,12 Z M 7.5,13 h 4.660156 l 2.330078,4.035156 -4.037109,-1.082031 z"/>
 <path style="fill:#ffffff;opacity:0.2" d="M 3 2 C 2.446 2 2 2.446 2 3 L 2 3.5 C 2 2.946 2.446 2.5 3 2.5 L 21 2.5 C 21.554 2.5 22 2.946 22 3.5 L 22 3 C 22 2.446 21.554 2 21 2 L 3 2 z"/>
</svg>
